!!!!SEGMENT: pl-kk--kk-i-88--001-008_golabek-jakub--missa-1-agnus-dei.krn
!!!cenid: 17xx:2573
!!!COM: Gołąbek, Jakub
!!!COM-rismID: pe30008748
!!!CDT: 1739-1789/03/30
!!!CNT: Polish
!!!OPR: Missa 1
!!!OTL: Agnus Dei
!!!OMV: 008
!!!PDT:
!!!AGN: Sacred; Mass
!!!YEC: Copyright 2022 Narodowy Instytut Fryderyka Chopina (https://polishscores.org)
!!!YEM: License CC-BY-4.0 (https://creativecommons.org/licenses/by/4.0)
!!!SMS-siglum: PL-Kk
!!!SMS-shelfmark: Kk.I.88
!!!SMS-variant:
!!!SMS-altvar:
!!!SMS-shelfwork: 001-008 M
!!!NIFC-rismSourceID: 1001164072
!!!NIFC-rismChildID: 1001155167
!!!NIFC-islandoraID:
!!!URL-pdf-islandora: https://repozytorium.nifc.pl/islandora/object/pl-kk%3A3086/datastream/PDF/view
!!!URL-scan: https://polish.musicsources.pl/pl/lokalizacje/galeria/rekopisy/6148-missa/4 @EN{Scan on Polish Music Sources Website} @PL{Skany w portalu Dziedzictwo Muzyki Polskiej w otwartym dostępie}
!!!IIIF:
!!!ONB-nifc: UWAGA: C - f. 2r-3v; A - f. 10r-11v; T - f. 18r-19v; B - f. 26r-27v; B rip - f. 33r-34r. Proszę uwzględniać B rip. Części Mszy: 1. Kyrie, 2. Christe, 3. Et in terra, 4. Quoniam, 5. Sanctus, 6. Osanna, 7. Benedictus, 8. Agnus Dei, 9. Dona nobis
!!!OMD:
!!!AIN: 1 alto 2 bass 1 canto 1 tenor
!!!key: C
**kern	**text	**dynam	**kern	**text	**dynam	**kern	**text	**kern	**text	**dynam	**kern	**text	**dynam
*part5	*part5	*part5	*part4	*part4	*part4	*part3	*part3	*part2	*part2	*part2	*part1	*part1	*part1
*staff5	*staff5	*	*staff4	*staff4	*staff4	*staff3	*staff3	*staff2	*staff2	*	*staff1	*staff1	*
*I"Baſso E ripieno	*	*	*I"Baſso	*	*	*I"Tenore	*	*I"Alto	*	*	*I"Canto	*	*
*I'B rip	*	*	*I'B	*	*	*I'T	*	*I'A	*	*	*I'S	*	*
*Ibass	*	*	*Ibass	*	*	*Itenor	*	*Ialto	*	*	*Icanto	*	*
*ICvox	*	*	*ICvox	*	*	*ICvox	*	*ICvox	*	*	*ICvox	*	*
*clefF4	*	*	*clefF4	*	*	*clefC4	*	*clefC3	*	*	*clefC1	*	*
*k[]	*	*	*k[]	*	*	*k[]	*	*k[]	*	*	*k[]	*	*
*C:	*	*	*C:	*	*	*C:	*	*C:	*	*	*C:	*	*
*M2/2	*	*	*M2/2	*	*	*M2/2	*	*M2/2	*	*	*M2/2	*	*
*met(c|)	*	*	*met(c|)	*	*	*met(c|)	*	*met(c|)	*	*	*met(c|)	*	*
=1	=1	=1	=1	=1	=1	=1	=1	=1	=1	=1	=1	=1	=1
*	*	*	*	*	*	*	*	*2\right	*	*	*2\right	*	*
4C/	A-	.	4C/	A-	.	2.G/	A-	2.e\	A-	.	2.cc\	A-	.
4E/	.	.	4E/	.	.	.	.	.	.	.	.	.	.
4G\	.	.	4G\	.	.	.	.	.	.	.	.	.	.
4c\	-gnus	.	4c\	-gnus	.	4G/	-gnus	4e\	-gnus	.	4cc\	-gnus	.
=2	=2	=2	=2	=2	=2	=2	=2	=2	=2	=2	=2	=2	=2
*2\right	*	*	*2\right	*	*	*	*	*	*	*	*	*	*
2G\	De-	.	2G\	De-	.	2G/	De-	2d\	De-	.	2b\	De-	.
4G\	-i	.	4G\	-i	.	4G/	-i	4d\	-i	.	4b\	-i	.
4G\	qui	.	4G\	qui	.	4G/	qui	4e\	qui	.	4cc\	qui	.
=3	=3	=3	=3	=3	=3	=3	=3	=3	=3	=3	=3	=3	=3
1G	tol-	.	1G	tol-	.	4B\	tol-	4f\	tol-	.	4dd\	tol-	.
.	.	.	.	.	.	4A\	.	4e\	.	.	4cc\	.	.
.	.	.	.	.	.	4B\	.	4f\	.	.	4dd\	.	.
.	.	.	.	.	.	4G\	.	4d\	.	.	4b\	.	.
=4	=4	=4	=4	=4	=4	=4	=4	=4	=4	=4	=4	=4	=4
4C/	-lis	.	4C/	-lis	.	4G/	-lis	4e\	-lis	.	4cc\	-lis	.
4E/	pec-	.	4E/	pec-	.	4G/	pec-	4e\	pec-	.	4cc\	pec-	.
4D/	-ca-	.	4D/	-ca-	.	4F/	-ca-	4f\	-ca-	.	4dd\	-ca-	.
4C/	-ta	.	4C/	-ta	.	4E/	-ta	4g\	-ta	.	4ee\	-ta	.
=5	=5	=5	=5	=5	=5	=5	=5	=5	=5	=5	=5	=5	=5
*	*	*	*	*	*	*2\right	*	*	*	*	*	*	*
1G	mun-	.	1G	mun-	.	2B\	mun-	2f\	mun-	.	2dd\	mun-	.
.	.	.	.	.	.	2c\	.	2e\	.	.	2cc\	.	.
=6	=6	=6	=6	=6	=6	=6	=6	=6	=6	=6	=6	=6	=6
2G\	-di	.	2G\	-di	.	2G/	-di	2d\	-di	.	2b\	-di	.
2r	.	.	2r	.	.	2r	.	2r	.	.	2r	.	.
!	!	!	!	!	!	!	!	!	!	!	!LO:LB:g=original	!	!
=7	=7	=7	=7	=7	=7	=7	=7	=7	=7	=7	=7	=7	=7
4G\	mi-	.	4G\	mi-	.	2B\	mi-	2f\	mi-	.	2dd\	mi-	.
4A\	.	.	4A\	.	.	.	.	.	.	.	.	.	.
4B\	-se-	.	4B\	-se-	.	2G/	-se-	2d\	-se-	.	2b\	-se-	.
4G\	.	.	4G\	.	.	.	.	.	.	.	.	.	.
!	!	!	!	!	!	!LO:LB:g=original	!	!LO:LB:g=original	!	!	!	!	!
=8	=8	=8	=8	=8	=8	=8	=8	=8	=8	=8	=8	=8	=8
4c\	-re-	.	4c\	-re-	.	4G/	-re-	4g\	-re-	.	4ee\	-re-	.
4G\	.	.	4G\	.	.	4B/	.	4f\	.	.	4dd\	.	.
4E\	.	.	4E\	.	.	2G/	-re	2e\	-re	.	2cc\	-re	.
4C\	-re	.	4C\	-re	.	.	.	.	.	.	.	.	.
!	!	!	!LO:LB:g=original	!	!	!	!	!	!	!	!	!	!
=9	=9	=9	=9	=9	=9	=9	=9	=9	=9	=9	=9	=9	=9
2GG/	mi-	.	2GG/	mi-	.	4d\	mi-	4d\	mi-	.	4b\	mi-	.
.	.	.	.	.	.	4c\	.	4e\	.	.	4cc\	.	.
2G\	-se-	.	2G\	-se-	.	4B\	.	4f\	.	.	4dd\	.	.
.	.	.	.	.	.	4c\	-se-	4e\	-se-	.	4cc\	-se-	.
=10	=10	=10	=10	=10	=10	=10	=10	=10	=10	=10	=10	=10	=10
2G\	-re-	.	2G\	-re-	.	4d\	-re-	4d\	-re-	.	4b\	-re-	.
.	.	.	.	.	.	4c\	.	4e\	.	.	4cc\	.	.
2G\	-re	.	2G\	-re	.	4B\	.	4f\	.	.	4dd\	.	.
.	.	.	.	.	.	4d\	-re	4d\	-re	.	4b\	-re	.
!LO:LB:g=original	!	!	!	!	!	!	!	!	!	!	!	!	!
=11	=11	=11	=11	=11	=11	=11	=11	=11	=11	=11	=11	=11	=11
4C/	no-	.	4C/	no-	.	1G	no-	4e\	no-	.	4cc\	no-	.
4D/	.	.	4D/	.	.	.	.	4f\	.	.	4b\	.	.
4E/	.	.	4E\	.	.	.	.	4g\	.	.	4ee\	.	.
4F/	.	.	4F\	.	.	.	.	4f\	.	.	4dd\	.	.
=12	=12	=12	=12	=12	=12	=12	=12	=12	=12	=12	=12	=12	=12
2G\	.	.	2G\	.	.	1G	.	2e\	.	.	2cc\	.	.
2GG/	.	.	2GG/	.	.	.	.	2d\	.	.	2b\	.	.
=13	=13	=13	=13	=13	=13	=13	=13	=13	=13	=13	=13	=13	=13
2C/	-bis	.	2C/	-bis	.	2G/	-bis	2e\	-bis	.	2cc\	-bis	.
2r	.	.	2r	.	.	2r	.	2r	.	.	2r	.	.
=14	=14	=14	=14	=14	=14	=14	=14	=14	=14	=14	=14	=14	=14
!	!	!LO:DY:a:rj	!	!	!LO:DY:a:t=p.	!	!	!	!	!LO:DY:a	!	!	!LO:DY:a:rj
4G\	mi-	p	4G\	mi-	p	2B\	mi-	2f\	mi-	p	2dd\	mi-	p
4A\	.	.	4A\	.	.	.	.	.	.	.	.	.	.
4B\	.	.	4B\	.	.	2G/	-se-	2d\	-se-	.	2b\	-se-	.
4G\	-se-	.	4G\	-se-	.	.	.	.	.	.	.	.	.
!	!	!	!	!	!	!	!	!	!	!	!LO:LB:g=original	!	!
=15	=15	=15	=15	=15	=15	=15	=15	=15	=15	=15	=15	=15	=15
4c\	-re-	.	4c\	-re-	.	4G/	-re-	4g\	-re-	.	4ee\	-re-	.
4G\	.	.	4G\	.	.	4B/	.	4f\	.	.	4dd\	.	.
4E\	-re	.	4E\	.	.	2G/	-re	2e\	-re	.	2cc\	-re	.
4C/	.	.	4C/	-re	.	.	.	.	.	.	.	.	.
=16	=16	=16	=16	=16	=16	=16	=16	=16	=16	=16	=16	=16	=16
!	!	!LO:DY:a	!	!	!	!	!	!	!	!	!	!	!LO:DY:a:t=fo:rj
2GG/	mi-	f	2GG/	mi-	.	4B\	mi-	4f\	mi-	.	4dd\	mi-	f
.	.	.	.	.	.	4A\	.	4e\	.	.	4cc\	.	.
!	!	!	!	!	!	!	!	!LO:LB:g=original	!	!	!	!	!
=-	=-	=-	=-	=-	=-	=-	=-	=-	=-	=-	=-	=-	=-
2G\	-se-	.	2G\	-se-	.	4G\	.	4d\	-se-	.	4b\	.	.
.	.	.	.	.	.	4A\	-se-	4e\	.	.	4cc\	-se-	.
!	!	!	!LO:LB:g=original	!	!	!LO:LB:g=original	!	!	!	!	!	!	!
=17	=17	=17	=17	=17	=17	=17	=17	=17	=17	=17	=17	=17	=17
2G\	-re-	.	2G\	-re-	.	4B\	-re-	4f\	-re-	.	4dd\	-re-	.
.	.	.	.	.	.	4A\	.	4e\	.	.	4cc\	.	.
2G\	-re	.	2G\	-re	.	4G\	.	4d\	.	.	4b\	.	.
.	.	.	.	.	.	4B\	-re	4f\	-re	.	4dd\	-re	.
=18	=18	=18	=18	=18	=18	=18	=18	=18	=18	=18	=18	=18	=18
!	!	!	!	!	!	!	!	!	!	!LO:DY:a	!	!	!
4C/	no-	.	4C/	no-	.	1G	no-	4e\	no-	f	4cc\	no-	.
4D/	.	.	4D/	.	.	.	.	4f\	.	.	4b\	.	.
4E\	.	.	4E\	.	.	.	.	4g\	.	.	4ee\	.	.
4F\	.	.	4F\	.	.	.	.	4f\	.	.	4dd\	.	.
=19	=19	=19	=19	=19	=19	=19	=19	=19	=19	=19	=19	=19	=19
2G\	.	.	2G\	.	.	1G	.	2e\	.	.	2cc\	.	.
2GG/	.	.	2GG/	.	.	.	.	2d\	.	.	2b\	.	.
=20	=20	=20	=20	=20	=20	=20	=20	=20	=20	=20	=20	=20	=20
1C	-bis	.	1C	-bis	.	1G	-bis	1e	-bis	.	1cc	-bis	.
!LO:LB:g=original	!	!	!LO:LB:g=original	!	!	!LO:LB:g=original	!	!LO:LB:g=original	!	!	!LO:LB:g=original	!	!
=21||	=21||	=21||	=21||;;	=21||	=21||	=21||;;	=21||	=21||;;	=21||	=21||	=21||;;	=21||	=21||
*M3/2	*	*	*M3/2	*	*	*M3/2	*	*M3/2	*	*	*M3/2	*	*
2C/	A-	.	2C/	A-	.	1G	A-	1g	A-	.	1ee	A-	.
2E\	.	.	2E\	.	.	.	.	.	.	.	.	.	.
2G\	-gnus	.	2G\	-gnus	.	2B\	-gnus	2f\	-gnus	.	2dd\	-gnus	.
=22	=22	=22	=22	=22	=22	=22	=22	=22	=22	=22	=22	=22	=22
4G\	De-	.	4G\	De-	.	2G/	De-	2f\	De-	.	2dd\	De-	.
8A\L	.	.	8A\L	.	.	.	.	.	.	.	.	.	.
8B\J	.	.	8B\J	.	.	.	.	.	.	.	.	.	.
2c\	-i	.	2c\	-i	.	2G/	-i	2e\	-i	.	2cc\	-i	.
4r	.	.	4r	.	.	4r	.	4r	.	.	4r	.	.
8C/L	qui	.	8C/L	qui	.	4G/	qui	4e\	qui	.	4cc;\	qui	.
8E/J	.	.	8E/J	.	.	.	.	.	.	.	.	.	.
=23	=23	=23	=23	=23	=23	=23	=23	=23	=23	=23	=23	=23	=23
2G\	tol-	.	2G\	tol-	.	2G/	tol-	2e\	tol-	.	2cc\	tol-	.
2G\	-lis	.	2G\	-lis	.	2G/	-lis	4d\	-lis	.	4b\	-lis	.
.	.	.	.	.	.	.	.	4e\	.	.	4cc\	.	.
2G\	pec-	.	2G\	pec-	.	2B\	pec-	2f\	pec-	.	2dd\	pec-	.
=24	=24	=24	=24	=24	=24	=24	=24	=24	=24	=24	=24	=24	=24
2G\	-ca-	.	2G\	-ca-	.	2B\	-ca-	2f\	-ca-	.	2dd\	-ca-	.
2C/	-ta	.	2C/	-ta	.	2G\	-ta	2e\	-ta	.	2cc\	-ta	.
2C/	pec-	.	2C/	pec-	.	2c\	pec-	2g\	pec-	.	2ee\	pec-	.
=25	=25	=25	=25	=25	=25	=25	=25	=25	=25	=25	=25	=25	=25
2C/	-ca-	.	2C/	-ca-	.	1G	-ca-	2g\	-ca-	.	2ee\	-ca-	.
2BB/	.	.	2BB/	.	.	.	.	2f\	.	.	2dd\	.	.
2C/	-ta	.	2C/	-ta	.	2G/	-ta	2e\	-ta	.	2cc\	-ta	.
!	!	!	!LO:LB:g=original	!	!	!	!	!LO:LB:g=original	!	!	!	!	!
=26	=26	=26	=26	=26	=26	=26	=26	=26	=26	=26	=26	=26	=26
2G\	mun-	.	2G\	mun-	.	2G/	mun-	2e\	mun-	.	2cc\	mun-	.
2G\	-di	.	2G\	-di	.	2G/	-di,	2d\	-di,	.	2b\	-di,	.
4r	.	.	4r	.	.	4r	.	4r	.	.	4r	.	.
!	!	!LO:DY:a	!	!	!LO:DY:a:t=p.	!	!	!	!	!LO:DY:a	!	!	!LO:DY:a:t=p&colon;
8C/L	qui	p	8C/L	qui	p	4G/	qui	4e\	qui	p	4cc\	qui	p
8E/J	.	.	8E/J	.	.	.	.	.	.	.	.	.	.
!	!	!	!	!	!	!LO:LB:g=original	!	!	!	!	!LO:LB:g=original	!	!
=27	=27	=27	=27	=27	=27	=27	=27	=27	=27	=27	=27	=27	=27
2G\	tol-	.	2G\	tol-	.	2G/	tol-	2e\	tol-	.	2cc\	tol-	.
2G\	-lis	.	2G\	-lis	.	2G/	-lis	4d\	-lis	.	4b\	-lis	.
.	.	.	.	.	.	.	.	4e\	.	.	4cc\	.	.
2G\	pec-	.	2G\	pec-	.	2B\	pec-	2f\	pec-	.	2dd\	pec-	.
!LO:LB:g=original	!	!	!	!	!	!	!	!	!	!	!	!	!
=28	=28	=28	=28	=28	=28	=28	=28	=28	=28	=28	=28	=28	=28
2G\	-ca-	.	2G\	-ca-	.	2B\	-ca-	2f\	-ca-	.	2dd\	-ca-	.
2C/	-ta	.	2C/	-ta	.	2G/	-ta	2e\	-ta	.	2cc\	-ta	.
!	!	!	!	!	!LO:DY:a:t=for	!	!	!	!	!LO:DY:b:t=for	!	!	!
2C/	pec-	.	2C/	pec-	f	2c\	pec-	2g\	pec-	f	2ee\	pec-	.
=29	=29	=29	=29	=29	=29	=29	=29	=29	=29	=29	=29	=29	=29
!	!	!	!	!	!	!	!	!	!	!	!	!	!LO:DY:a:t=f&colon;:rj
2C/	-ca-	.	2C/	-ca-	.	1G	-ca-	2g\	-ca-	.	2ee\	-ca-	f
2BB/	.	.	2BB/	.	.	.	.	2f\	.	.	2dd\	.	.
2C/	-ta	.	2C/	-ta	.	2G/	-ta	2e\	-ta	.	2cc\	-ta	.
=30	=30	=30	=30	=30	=30	=30	=30	=30	=30	=30	=30	=30	=30
1F	mun-	.	1F	mun-	.	1B	mun-	1f	mun-	.	1dd	mun-	.
2F#X\	.	.	2F#X\	.	.	2c\	.	2e\	.	.	2cc\	.	.
=31	=31	=31	=31	=31	=31	=31	=31	=31	=31	=31	=31	=31	=31
!LO:TX:b:t=Dona nobis ut Kyrie	!	!	!	!	!	!	!	!	!	!	!	!	!
1.G	-di	.	1.G;	-di	.	1G;	-di	1d	-di	.	1.b	-di	.
.	.	.	.	.	.	2ryy	.	2ryy	.	.	.	.	.
==	==	==	==;;	==	==	==;;	==	==;;	==	==	==;;	==	==
*-	*-	*-	*-	*-	*-	*-	*-	*-	*-	*-	*-	*-	*-
!!!system-decoration: [(s1,s2,s3,s4)]s5
!!!ENC: Berenika Jozajtis
!!!END: 2024-02-23
!!!EED: Marta Chmielewska
!!!EEV: 2024-04-29
